!!!OTL: Quartett in G für 2 Violinen, Viola und Violoncello, 2. Satz, KV 387/02
!!!system-decoration: [(s1,s2,s3,s4)]
**kern	**kern	**kern	**kern	**dynam	**kern	**kern	**kern	**kern	**dynam	**kern	**kern	**kern	**kern	**dynam	**kern	**kern	**kern	**kern	**dynam
*part4	*part4	*part4	*part4	*part4	*part3	*part3	*part3	*part3	*part3	*part2	*part2	*part2	*part2	*part2	*part1	*part1	*part1	*part1	*part1
*staff16	*staff15	*staff14	*staff13	*	*staff12	*staff11	*staff10	*staff9	*	*staff8	*staff7	*staff6	*staff5	*	*staff4	*staff3	*staff2	*staff1	*
*I"Violoncello	*	*	*	*	*I"Viola	*	*	*	*	*I"Violino II	*	*	*	*	*I"Violino I	*	*	*	*
*clefF4	*	*clefC3	*	*clefG2	*	*clefG2	*
*k[f#]	*	*k[f#]	*	*k[f#]	*	*k[f#]	*
*M3/4	*	*M3/4	*	*M3/4	*	*M3/4	*
4r	.	4r	.	4r	.	(4gg	.
4r	.	4r	.	4r	.	4dd)	.
4G	.	4d	.	4b	.	4r	.
=2	=2	=2	=2	=2	=2	=2	=2
4r	.	4r	.	4r	.	(4dd	.
4r	.	4r	.	4r	.	4b)	.
4GG	.	4B	.	4g	.	4r	.
=3	=3	=3	=3	=3	=3	=3	=3
2.r	.	2.r	.	2.r	.	(4b	.
.	.	.	.	.	.	4cc	.
.	.	.	.	.	.	4cc#	.
=4	=4	=4	=4	=4	=4	=4	=4
2.r	.	2.r	.	2.r	.	4dd	.
.	.	.	.	.	.	4dd#	.
.	.	.	.	.	.	4ee)	.
=5	=5	=5	=5	=5	=5	=5	=5
2.r	.	2.r	.	2.r	.	(4a	.
.	.	.	.	.	.	4b-	.
.	.	.	.	.	.	4bn	.
=6	=6	=6	=6	=6	=6	=6	=6
2.r	.	2.r	.	2.r	.	4cc	.
.	.	.	.	.	.	4cc#	.
.	.	.	.	.	.	4dd)	.
=7	=7	=7	=7	=7	=7	=7	=7
(4G	.	2.B	.	2.r	.	[2.g	.
4F#y	.	.	.	.	.	.	.
4Fn	.	.	.	.	.	.	.
=8	=8	=8	=8	=8	=8	=8	=8
4E	.	(2c	.	[2.g	.	(4g_	.
4E-	.	.	.	.	.	4cc	.
4D)	.	4d)	.	.	.	4b)	.
!!LO:LB
=9	=9	=9	=9	=9	=9	=9	=9
4C	.	2.e	.	(4.g_	.	(8bL_	.
.	.	.	.	.	.	8a)	.
4AA	.	.	.	.	.	(8ee	.
.	.	.	.	8eL	.	8cc	.
4C	.	.	.	8d	.	8b	.
.	.	.	.	8cJ)	.	8aJ)	.
=10	=10	=10	=10	=10	=10	=10	=10
4D	.	4d	.	(8BL	.	(8gL	.
.	.	.	.	8A)	.	8f#y)	.
4r	.	4r	.	(8b	.	(8dd	.
.	.	.	.	8g	.	8b	.
4r	.	4r	.	8a	.	8cc	.
.	.	.	.	8f#yJ)	.	8aJ)	.
=11	=11	=11	=11	=11	=11	=11	=11
4r	.	4r	.	4r	.	(8ff#yL	.
.	.	.	.	.	.	8ggJ)	.
4r	.	4r	.	4r	.	4dd	.
4G	.	4d	.	4b	.	4r	.
=12	=12	=12	=12	=12	=12	=12	=12
4r	.	4r	.	4r	.	(8cc#L	.
.	.	.	.	.	.	8ddJ)	.
4r	.	4r	.	4r	.	4b	.
4GG	.	4B	.	4g	.	4r	.
=13	=13	=13	=13	=13	=13	=13	=13
2.r	.	2.r	.	(4b	.	2.r	.
.	.	.	.	4cc	.	.	.
.	.	.	.	4cc#	.	.	.
=14	=14	=14	=14	=14	=14	=14	=14
2.r	.	(4B	.	4dd	.	[2gg	.
.	.	4c	.	4dd#	.	.	.
.	.	4c#	.	4ee)	.	(8ggL_	.
.	.	.	.	.	.	16aa	.
.	.	.	.	.	.	16ggJ	.
=15	=15	=15	=15	=15	=15	=15	=15
2.r	.	4d)	.	(4a	.	4ff#y)	.
.	.	4r	.	4b-	.	4r	.
.	.	4r	.	4bn	.	4r	.
=16	=16	=16	=16	=16	=16	=16	=16
2.r	.	(4A	.	4ccn	.	[2ffn	.
.	.	4B-	.	4cc#	.	.	.
.	.	4Bn	.	4dd)	.	(8ffL_	.
.	.	.	.	.	.	16gg	.
.	.	.	.	.	.	16ffJ)	.
=17	=17	=17	=17	=17	=17	=17	=17
4r	crescendo	4cn)	cresc.	4g	crescendo	(4ee	crescendo
(4A	.	(4d	.	(4ccn	.	4ff#	.
4G	.	4e	.	4b	.	4gg	.
=18	=18	=18	=18	=18	=18	=18	=18
4F#y	.	4f#y	.	4a	.	4aa	.
4E	.	4g	.	4g	.	4bb	.
4D)	.	4a)	.	4f#y)	.	4ccc)	.
=19	=19	=19	=19	=19	=19	=19	=19
4G	.	(2g	.	(4dd	.	(8cccL_	.
.	.	.	.	.	.	8bb	.
4r	.	.	.	8cc#L	.	8aa	.
.	.	.	.	8b	.	8gg	.
4GG	.	4b)	.	8a	.	8ff#y	.
.	.	.	.	8gJ)	.	8eeJ)	.
=20	=20	=20	=20	=20	=20	=20	=20
4AA	.	8aL	.	(2f#y	.	(2dd	.
.	.	(8a	.	.	.	.	.
4A	.	8g#	.	.	.	.	.
.	.	8a	.	.	.	.	.
4r	.	8gn	.	4e)	.	4cc#)	.
.	.	8eJ)	.	.	.	.	.
=21	=21	=21	=21	=21	=21	=21	=21
(4D	.	2.d	.	(8f#yL	.	(2aa	.
.	.	.	.	8a	.	.	.
4F#y	.	.	.	8d	.	.	.
.	.	.	.	8a	.	.	.
4D	.	.	.	8f#y	.	8.ddL	.
.	.	.	.	8aJ)	.	.	.
.	.	.	.	.	.	16cc#J)	.
!!LO:LB
=22	=22	=22	=22	=22	=22	=22	=22
4A)	.	(8eL	.	4g	.	4cc#	.
.	.	8a	.	.	.	.	.
4r	.	8g#	.	4r	.	4r	.
.	.	8a	.	.	.	.	.
4r	.	8gn	.	4r	.	4r	.
.	.	8f#yJ)	.	.	.	.	.
=23	=23	=23	=23	=23	=23	=23	=23
(4AA	.	(2e	.	(8c#L	.	(2aa	.
.	.	.	.	8a	.	.	.
4C#	.	.	.	8A	.	.	.
.	.	.	.	8a	.	.	.
4AA	.	8.c#L	.	8g	.	8.eeL	.
.	.	.	.	8aJ)	.	.	.
.	.	16dJ)	.	.	.	16ddJ)	.
=24	=24	=24	=24	=24	=24	=24	=24
4D)	.	(8dL	.	4f#y	.	4dd	.
.	.	8a	.	.	.	.	.
4r	.	8g#	.	4r	.	4r	.
.	.	8a	.	.	.	.	.
4r	.	8gn	.	4r	.	4r	.
.	.	8eJ)	.	.	.	.	.
=25	=25	=25	=25	=25	=25	=25	=25
(4D	.	(2d	.	(8f#yL	.	(2aa	.
.	.	.	.	8a	.	.	.
4F#y	.	.	.	8d	.	.	.
.	.	.	.	8a	.	.	.
4D)	.	4A)	.	8dd	.	8.ff#yL	.
.	.	.	.	8aJ)	.	.	.
.	.	.	.	.	.	16eeJ)	.
=26	=26	=26	=26	=26	=26	=26	=26
2.G	cresc.	(4G	cresc.	(2b	cresc.	(4ee	cresc.
.	.	4B	.	.	.	4gg	.
.	.	4e)	.	4cc#)	.	4bb)	.
=27	=27	=27	=27	=27	=27	=27	=27
4F#y	.	4A	.	4dd	.	(8bbL	.
.	.	.	.	.	.	8aa	.
4G	.	4B	.	4b	.	8gg	.
.	.	.	.	.	.	8ff#y	.
4A	.	4c#	.	4g	.	8ee	.
.	.	.	.	.	.	8ff#yJ)	.
!!LO:LB
=28	=28	=28	=28	=28	=28	=28	=28
4D	.	4d	.	4f#y	.	4dd	.
4d	.	4r	.	4r	.	4r	.
4r	.	4r	.	4r	.	8.ddL	.
.	.	.	.	.	.	16eeJ	.
=29	=29	=29	=29	=29	=29	=29	=29
4A#	.	4c#	.	4e	.	4ff#y	.
4A#y	.	4c#y	.	4e	.	4ff#y	.
4A#y	.	4c#y	.	4e	.	4ff#y	.
=30	=30	=30	=30	=30	=30	=30	=30
4B	.	4B	.	4d	.	(8ff#yL	.
.	.	.	.	.	.	8bb	.
4r	.	4r	.	4r	.	8aa#	.
.	.	.	.	.	.	8aan	.
4r	.	4r	.	4r	.	8gg#	.
.	.	.	.	.	.	8ggnJ	.
=31	=31	=31	=31	=31	=31	=31	=31
2.r	.	4A#	.	(8eeL	.	4ff#y)	.
.	.	.	.	8cc#	.	.	.
.	.	4A#y	.	8ee	.	4ff#y	.
.	.	.	.	8cc#y	.	.	.
.	.	4A#y	.	8ee	.	4ff#y	.
.	.	.	.	8cc#yJ)	.	.	.
=32	=32	=32	=32	=32	=32	=32	=32
2.r	.	4B	.	4dd	.	(8ff#yL	.
.	.	.	.	.	.	8bb	.
.	.	4r	.	4r	.	8aa#	.
.	.	.	.	.	.	8aan	.
.	.	4r	.	4r	.	8gg#	.
.	.	.	.	.	.	8ggnJ)	.
=33	=33	=33	=33	=33	=33	=33	=33
4G#	.	(8dL	.	(8bL	.	(8ff#yL	.
.	.	8B	.	8dd	.	8eeJ)	.
4G#y	.	8d	.	8b	.	4ee	.
.	.	8B	.	8dd	.	.	.
4G#y	.	8d	.	8b	.	4ee	.
.	.	8BJ)	.	8ddJ)	.	.	.
!!LO:LB
=34	=34	=34	=34	=34	=34	=34	=34
(2An	.	(2e	.	(2cc#	.	(8eeL	.
.	.	.	.	.	.	8bb	.
.	.	.	.	.	.	8aa	.
.	.	.	.	.	.	8gg#	.
4B)	.	4d)	.	4dd)	.	8ggn	.
.	.	.	.	.	.	8ff#yJ)	.
=35	=35	=35	=35	=35	=35	=35	=35
4G	.	4g	.	4b	.	(8ff#yL	.
.	.	.	.	.	.	8eeJ)	.
4A	.	4f#y	.	4a	.	4dd	.
4AA	.	4e	.	4g	.	4cc#	.
=36	=36	=36	=36	=36	=36	=36	=36
4D	.	4d	.	8f#yL	.	4dd	.
.	.	.	.	(<8dd	.	.	.
4r	.	4r	.	8cc#	.	4r	.
.	.	.	.	8ccn	.	.	.
4r	.	4r	.	8b	.	4r	.
.	.	.	.	8b-J)	.	.	.
=37	=37	=37	=37	=37	=37	=37	=37
4AA	.	(8c#L	.	[2.a	.	(8eeL	.
.	.	8d	.	.	.	8ff#y	.
4r	.	8e	.	.	.	8gg	.
.	.	8f#y	.	.	.	8aa	.
(4c#	.	8g	.	.	.	8bb	.
.	.	8f#yJ)	.	.	.	8aaJ)	.
=38	=38	=38	=38	=38	=38	=38	=38
4d)	.	8f#yL	.	4a]	.	4aa	.
.	.	(8dd	.	.	.	.	.
4r	.	8cc#	.	4r	.	4r	.
.	.	8ccn	.	.	.	.	.
4r	.	8b	.	4r	.	4r	.
.	.	8b-J)	.	.	.	.	.
=39	=39	=39	=39	=39	=39	=39	=39
4A	.	[2.a	.	(8c#L	.	(8aL	.
.	.	.	.	8d	.	8b	.
4r	.	.	.	8e	.	8cc#	.
.	.	.	.	8f#y	.	8dd	.
(4AA	.	.	.	8g	.	8ee	.
.	.	.	.	8f#yJ)	.	8ddJ)	.
=40	=40	=40	=40	=40	=40	=40	=40
4D)	.	4a]	.	4f#y	.	4dd	.
4d	.	4r	.	4r	.	4r	.
4r	.	4r	.	4r	.	4r	.
=41:|!	=41:|!	=41:|!	=41:|!	=41:|!	=41:|!	=41:|!	=41:|!
(4D	.	4r	.	4r	.	4r	.
4F#y)	.	4r	.	4r	.	4r	.
4r	.	4a	.	4f#y	.	4dd	.
=42	=42	=42	=42	=42	=42	=42	=42
(4F#y	.	4r	.	4r	.	4r	.
4A)	.	4r	.	4r	.	4r	.
4r	.	4a	.	4f#y	.	4dd	.
=43	=43	=43	=43	=43	=43	=43	=43
(4A	.	2.r	.	2.r	.	2.r	.
4d	.	.	.	.	.	.	.
4f#y)	.	.	.	.	.	.	.
=44	=44	=44	=44	=44	=44	=44	=44
[2.a	.	(4cn	.	2.r	.	2.r	.
.	.	4f#y	.	.	.	.	.
.	.	4a)	.	.	.	.	.
=45	=45	=45	=45	=45	=45	=45	=45
2.a_	.	[2.ccn	.	(4f#y	.	2.r	.
.	.	.	.	4a	.	.	.
.	.	.	.	4ccn)	.	.	.
=46	=46	=46	=46	=46	=46	=46	=46
2.a_	.	2.cc]	.	[2.ff#y	.	(4ccn	.
.	.	.	.	.	.	4ff#y	.
.	.	.	.	.	.	4aa)	.
=47	=47	=47	=47	=47	=47	=47	=47
2.a]	cresc.	[2.b	cresc.	2.ff#y]	cresc.	(2.ddd#	cresc.
=48	=48	=48	=48	=48	=48	=48	=48
(4g	.	2.b_	.	(4ee	.	(4eee)	.
4f#y	.	.	.	4dd#	.	4aa	.
4e)	.	.	.	4ee)	.	4gg)	.
=49	=49	=49	=49	=49	=49	=49	=49
4A	.	4a	.	4ccn	.	(4ff#y	.
4r	.	4r	.	4r	.	4aa)	.
4B	.	4f#y	.	4a	.	4dd#	.
=50	=50	=50	=50	=50	=50	=50	=50
(4E	.	4e	.	4g	.	4ee	.
4G	.	4r	.	4r	.	4r	.
4B)	.	4r	.	4r	.	4r	.
=51	=51	=51	=51	=51	=51	=51	=51
2.e	.	(4g	.	(4cc#	.	(4ee	.
.	.	4cc#	.	4ee	.	4gg	.
.	.	4ee)	.	4gg)	.	4ccc#)	.
!!LO:LB
=52	=52	=52	=52	=52	=52	=52	=52
(4f#y	.	2.a	.	(4dd	.	(4dddn	.
4c#	.	.	.	4ee	.	4gg	.
4d)	.	.	.	4dd)	.	4ff#y)	.
=53	=53	=53	=53	=53	=53	=53	=53
4G	.	4g	.	4b	.	(4ee	.
4r	.	4r	.	4r	.	4gg)	.
4A	.	4e	.	4g	.	4cc#	.
=54	=54	=54	=54	=54	=54	=54	=54
4D	.	4d	.	4f#y	.	(8ddL	.
.	.	.	.	.	.	8cc#	.
4r	.	4r	.	4r	.	8dd	.
.	.	.	.	.	.	8cc#y	.
4r	.	4r	.	4r	.	8dd	.
.	.	.	.	.	.	8cc#yJ)	.
=55	=55	=55	=55	=55	=55	=55	=55
4G	.	4gT	.	4b-T	.	[2.dd	.
8.r	.	8.r	.	8.r	.	.	.
16F#y	.	16a	.	16ccn	.	.	.
4G	.	4g	.	4b-y	.	.	.
=56	=56	=56	=56	=56	=56	=56	=56
4D	.	4f#y	.	4a	.	8ddL]	.
.	.	.	.	.	.	(8c#	.
4r	.	4r	.	4r	.	8d	.
.	.	.	.	.	.	8c#y	.
4r	.	4r	.	4r	.	8d	.
.	.	.	.	.	.	8c#yJ)	.
=57	=57	=57	=57	=57	=57	=57	=57
4GG	.	4GT	.	4B-T	.	[2.d	.
8.r	.	8.r	.	8.r	.	.	.
16FF#y	.	16A	.	16c	.	.	.
4GG	.	4G	.	4B-y	.	.	.
=58	=58	=58	=58	=58	=58	=58	=58
4DD	.	4F#y	.	4A	.	8dL]	.
.	.	.	.	.	.	(8cc#	.
4r	.	4r	.	4r	.	8dd	.
.	.	.	.	.	.	8cc#y	.
4r	.	4r	.	4r	.	8dd	.
.	.	.	.	.	.	8cc#yJ)	.
=59	=59	=59	=59	=59	=59	=59	=59
2.r	.	8r	.	8r	.	[2.dd	.
.	.	(8f#yL	.	(8aL	.	.	.
.	.	8g	.	8b-	.	.	.
.	.	8f#y	.	8a	.	.	.
.	.	8g	.	8b-y	.	.	.
.	.	8f#yJ)	.	8aJ)	.	.	.
=60	=60	=60	=60	=60	=60	=60	=60
[2.d	.	[2.g	.	[2.b-	.	8ddL]	cresc.
.	.	.	.	.	.	(8dd#	.
.	.	.	.	.	.	8ee	.
.	.	.	.	.	.	8dd#y	.
.	.	.	.	.	.	8ee	.
.	.	.	.	.	.	8dd#yJ)	.
!!LO:LB
=61	=61	=61	=61	=61	=61	=61	=61
2.d_	cresc.	8gL]	cresc.	8b-yL]	cresc.	[2.ee	.
.	.	(8g#	.	(8bn	.	.	.
.	.	8a	.	8cc	.	.	.
.	.	8g#y	.	8b	.	.	.
.	.	8a	.	8cc	.	.	.
.	.	8g#yJ)	.	8bJ)	.	.	.
=62	=62	=62	=62	=62	=62	=62	=62
2.d_	.	2.a	.	2.cc	.	8eeL]	.
.	.	.	.	.	.	(8ff#y	.
.	.	.	.	.	.	8gg	.
.	.	.	.	.	.	8ff#y	.
.	.	.	.	.	.	8gg	.
.	.	.	.	.	.	8ff#yJ)	.
=63	=63	=63	=63	=63	=63	=63	=63
4r	.	4r	.	4r	.	(4gg	.
4r	.	4r	.	4r	.	4dd)	.
4G	.	4g	.	4b	.	4r	.
=64	=64	=64	=64	=64	=64	=64	=64
4r	.	4r	.	4r	.	(4dd	.
4r	.	4r	.	4r	.	4b)	.
4GG	.	4B	.	4g	.	4r	.
=65	=65	=65	=65	=65	=65	=65	=65
2.r	.	2.r	.	(4b	.	2.r	.
.	.	.	.	4cc	.	.	.
.	.	.	.	4cc#	.	.	.
=66	=66	=66	=66	=66	=66	=66	=66
2.r	.	(4B	.	4dd	.	[2gg	.
.	.	4c	.	4dd#	.	.	.
.	.	4c#	.	4ee)	.	(8ggL_	.
.	.	.	.	.	.	16aa	.
.	.	.	.	.	.	16ggJ	.
=67	=67	=67	=67	=67	=67	=67	=67
2.r	.	4d)	.	(4a	.	4ff#y)	.
.	.	4r	.	4b-	.	4r	.
.	.	4r	.	4bn	.	4r	.
=68	=68	=68	=68	=68	=68	=68	=68
[2Fn	.	2.r	.	4cc	.	(4A	.
.	.	.	.	4cc#	.	4B-	.
(8FL_	.	.	.	4dd)	.	4Bn	.
16G	.	.	.	.	.	.	.
16FJ	.	.	.	.	.	.	.
=69	=69	=69	=69	=69	=69	=69	=69
4E)	.	(4g	.	4g	.	4c)	.
4r	.	4a-	.	4r	.	4r	.
4r	.	4an	.	4r	.	4r	.
!!LO:LB
=70	=70	=70	=70	=70	=70	=70	=70
[2E-	.	4b-	.	[2gg	.	2.r	.
.	.	4bn	.	.	.	.	.
(8E-yL_	.	4cc)	.	(8ggL_	.	.	.
16Fn	.	.	.	16aa	.	.	.
16E-yJ)	.	.	.	16ggJ)	.	.	.
=71	=71	=71	=71	=71	=71	=71	=71
(4D	.	[2a	.	(4ff#	.	[2ccc	.
4En	.	.	.	4een	.	.	.
4F#	.	(8aL_	.	4dd)	.	(8cccL_	.
.	.	16b	.	.	.	16ddd	.
.	.	16aJ	.	.	.	16cccJ)	.
=72	=72	=72	=72	=72	=72	=72	=72
4G	.	4g)	.	(4dd_	.	(4bb	.
4D#	.	(4a	.	4cc	.	4ff#y	.
4E)	.	4g)	.	4b)	.	4gg)	.
=73	=73	=73	=73	=73	=73	=73	=73
(4C	.	(2G	.	(4A	.	(4ee	.
4D)	.	.	.	4B)	.	4dd)	.
4DD	.	4A)	.	4c	.	4f#y	.
=74	=74	=74	=74	=74	=74	=74	=74
(4GG	.	2.G	.	(8BL	.	(2dd	.
.	.	.	.	8d	.	.	.
4BB	.	.	.	8G	.	.	.
.	.	.	.	8d	.	.	.
4GG	.	.	.	8B	.	8.gL	.
.	.	.	.	8dJ)	.	.	.
.	.	.	.	.	.	16f#yJ)	.
=75	=75	=75	=75	=75	=75	=75	=75
4D)	.	(8AL	.	4c	.	4f#y	.
.	.	8d	.	.	.	.	.
4r	.	8c#	.	4r	.	4r	.
.	.	8d	.	.	.	.	.
4r	.	8cn	.	4r	.	4r	.
.	.	8BJ)	.	.	.	.	.
=76	=76	=76	=76	=76	=76	=76	=76
(4DD	.	(2A	.	(8cL	.	(2dd	.
.	.	.	.	8d	.	.	.
4FF#y	.	.	.	8A	.	.	.
.	.	.	.	8d	.	.	.
4DD	.	8.F#yL	.	8c	.	8.aL	.
.	.	.	.	8dJ)	.	.	.
.	.	16GJ)	.	.	.	16gJ)	.
=77	=77	=77	=77	=77	=77	=77	=77
4GG)	.	(8GL	.	4B	.	4g	.
.	.	8d	.	.	.	.	.
4r	.	8c#	.	4r	.	4r	.
.	.	8d	.	.	.	.	.
4r	.	8cn	.	4r	.	4r	.
.	.	8AJ)	.	.	.	.	.
=78	=78	=78	=78	=78	=78	=78	=78
(4GG	.	(8BL	.	(2dd	.	(2ddd	.
.	.	8g	.	.	.	.	.
4BB	.	8G	.	.	.	.	.
.	.	8g	.	.	.	.	.
4GG)	.	8d	.	8.bL	.	8.bbL	.
.	.	8gJ)	.	.	.	.	.
.	.	.	.	16aJ)	.	16aaJ)	.
=79	=79	=79	=79	=79	=79	=79	=79
2.C	.	(2e	.	(4a	.	(4aa	.
.	.	.	.	4cc	.	4ccc	.
.	.	4f#y)	.	4ee)	.	4eee)	.
=80	=80	=80	=80	=80	=80	=80	=80
4BB	.	4g	.	(8eeL	.	(8eeeL	.
.	.	.	.	8dd	.	8ddd	.
4C	.	4e	.	8cc	.	8ccc	.
.	.	.	.	8b	.	8bb	.
4D	.	4f#y 4c	.	8a	.	8aa	.
.	.	.	.	8bJ)	.	8bbJ)	.
=81	=81	=81	=81	=81	=81	=81	=81
4GG	.	4g 4B	.	4g	.	4gg	.
4G	.	4r	.	4r	.	4r	.
4r	.	8.gL	.	4r	.	4r	.
.	.	16aJ	.	.	.	.	.
=82	=82	=82	=82	=82	=82	=82	=82
4D#	.	4b	.	(8aL	.	2.r	.
.	.	.	.	8f#y	.	.	.
4D#y	.	4b	.	8a	.	.	.
.	.	.	.	8f#y	.	.	.
4D#y	.	4b	.	8a	.	.	.
.	.	.	.	8f#yJ)	.	.	.
=83	=83	=83	=83	=83	=83	=83	=83
4E	.	(8bL	.	4g	.	2.r	.
.	.	8ee	.	.	.	.	.
4r	.	8dd#	.	4r	.	.	.
.	.	8ddn	.	.	.	.	.
4r	.	8cc#	.	4r	.	.	.
.	.	8ccnJ)	.	.	.	.	.
=84	=84	=84	=84	=84	=84	=84	=84
4d#	.	4b	.	4b	.	(8aaL	.
.	.	.	.	.	.	8ff#y	.
4d#y	.	4r	.	4b	.	8aa	.
.	.	.	.	.	.	8ff#y	.
4d#y	.	4r	.	4b	.	8aa	.
.	.	.	.	.	.	8ff#yJ)	.
=85	=85	=85	=85	=85	=85	=85	=85
4e	.	2.r	.	(8bL	.	4gg	.
.	.	.	.	8ee	.	.	.
4r	.	.	.	8dd#	.	4r	.
.	.	.	.	8ddn	.	.	.
4r	.	.	.	8cc#	.	4r	.
.	.	.	.	8ccnJ)	.	.	.
!!LO:LB
=86	=86	=86	=86	=86	=86	=86	=86
4C#	.	(8EL	.	(8bL	.	(8bL	.
.	.	8G	.	8a	.	8aJ)	.
4C#y	.	8E	.	8g	.	4a	.
.	.	8G	.	8e	.	.	.
4C#y	.	8E	.	8g	.	4a	.
.	.	8GJ)	.	8eJ)	.	.	.
=87	=87	=87	=87	=87	=87	=87	=87
(2Dn	.	(4F#y	.	(4d	.	(8aL	.
.	.	.	.	.	.	8ee	.
.	.	4A	.	4f#y	.	8dd	.
.	.	.	.	.	.	8cc#	.
4E)	.	4G)	.	4g)	.	8ccn	.
.	.	.	.	.	.	8bJ)	.
=88	=88	=88	=88	=88	=88	=88	=88
4Cn	.	4c	.	4e	.	(8bL	.
.	.	.	.	.	.	8aJ)	.
4D	.	4B	.	4d	.	4g	.
4DD	.	4A	.	4c	.	4f#y	.
=89	=89	=89	=89	=89	=89	=89	=89
4GG	.	4G	.	4B	.	8gL	.
.	.	.	.	.	.	(8gg	.
4r	.	4r	.	4r	.	8ff#y	.
.	.	.	.	.	.	8ffn	.
4r	.	4r	.	4r	.	8ee	.
.	.	.	.	.	.	8ee-J)	.
=90	=90	=90	=90	=90	=90	=90	=90
4d	.	(8f#yL	.	(8aL	.	[2.dd	.
.	.	8g	.	8b	.	.	.
4r	.	8a	.	8cc	.	.	.
.	.	8b	.	8dd	.	.	.
(4F#y	.	8cc	.	8ee	.	.	.
.	.	8bJ)	.	8ddJ)	.	.	.
=91	=91	=91	=91	=91	=91	=91	=91
4G)	.	8bL	.	4dd	.	4dd]	.
.	.	(8g	.	.	.	.	.
4r	.	8f#y	.	4r	.	4r	.
.	.	8fn	.	.	.	.	.
4r	.	8e	.	4r	.	4r	.
.	.	8e-J)	.	.	.	.	.
=92	=92	=92	=92	=92	=92	=92	=92
4D	.	(4d	.	(4f#y	.	8r	.
.	.	.	.	.	.	(8ddL	.
4r	.	4c#	.	4g	.	8ee-	.
.	.	.	.	.	.	8een	.
(4DD	.	4cn)	.	4a)	.	8ffn	.
.	.	.	.	.	.	8ff#J	.
=93	=93	=93	=93	=93	=93	=93	=93
4GG;)	.	4B	.	4g	.	4gg)	.
4G	.	4r	.	4r	.	4r	.
4r	.	4r	.	4r	.	4r	.
=:|!	=:|!	=:|!	=:|!	=:|!	=:|!	=:|!	=:|!
*-	*-	*-	*-	*-	*-	*-	*-
!!!RDF**kern: < = below
